X: 1
T: Blake's Hornpipe #1
R: hornpipe
Z: 2005 John Chambers <jc@trillian.mit.edu>
B: The Great Northern Tune Book v.2 #386
M: C|
L: 1/8
K: Bb
BA \
| BFDE FAce | dfdB BAGF | EGcB AFec | Ccec dcBA |
| BFDE FAce | dfdB BAGF | E3g  fdcB | F2A2 B2 :|
|: zg \
| fgab fdcB | egec BAGF | EGcB AFec | Ccec c2ga |
| bgec Fafd | Egec BAGF | E3g  fdcB | F2A2 B2 :|
